client/src/assets/community/quote-end-dark.svg

<svg width="23" height="35" viewBox="0 0 23 35" fill="none" xmlns="http://www.w3.org/2000/svg">
<rect x="22.377" y="14.6484" width="8.80208" height="13.8712" transform="rotate(180 22.377 14.6484)" fill="#394035"/>
<path d="M16.9498 12.1035V15.7853C16.9498 18.9047 14.9043 22.5694 12.535 24.4956L9.33043 22.6035C10.6088 20.5922 11.4952 18.4956 11.4952 15.8194V12.1035H16.9498ZM8.3418 12.1035V15.7853C8.3418 18.9047 6.29634 22.5694 3.92702 24.4956L0.722478 22.6035C2.00089 20.5922 2.88725 18.4956 2.88725 15.8194V12.1035H8.3418Z" fill="#8FF295"/>
</svg>

<svg xmlns="http://www.w3.org/2000/svg" fill="none" viewBox="0 0 23 35"><path fill="#394035" d="M22.377 14.649h-8.802V.778h8.802z"/><path fill="#8FF295" d="M16.95 12.104v3.681c0 3.12-2.046 6.784-4.415 8.71L9.33 22.604c1.279-2.01 2.165-4.107 2.165-6.784v-3.716zm-8.608 0v3.681c0 3.12-2.046 6.784-4.415 8.71L.722 22.604c1.279-2.01 2.165-4.107 2.165-6.784v-3.716z"/></svg>
